svg/u1f912.svg

<svg viewBox="0 0 128 128" xmlns="http://www.w3.org/2000/svg">
  <g id="gold">
    <radialGradient id="face_1_" cx="63.6" cy="2288.8999" gradientTransform="matrix(1 0 0 1 0 -2226)" gradientUnits="userSpaceOnUse" r="56.9597">
      <stop offset="0.5" stop-color="#FDE030"/>
      <stop offset="0.92" stop-color="#F7C02B"/>
      <stop offset="1" stop-color="#F4A223"/>
    </radialGradient>
    <path id="face" d="M63.6,118.8c-27.9,0-58-17.5-58-55.9S35.7,7,63.6,7c15.5,0,29.8,5.1,40.4,14.4 c11.5,10.2,17.6,24.6,17.6,41.5s-6.1,31.2-17.6,41.4C93.4,113.6,79,118.8,63.6,118.8z" fill="url(#face_1_)"/>
    <path d="M111.49,29.67c5.33,8.6,8.11,18.84,8.11,30.23c0,16.9-6.1,31.2-17.6,41.4 c-10.6,9.3-25,14.5-40.4,14.5c-18.06,0-37-7.35-48.18-22.94c10.76,17.66,31,25.94,50.18,25.94c15.4,0,29.8-5.2,40.4-14.5 c11.5-10.2,17.6-24.5,17.6-41.4C121.6,50.16,118.13,38.84,111.49,29.67z" fill="#EB8F00"/>
    <g id="blush" opacity="0.9">
      <radialGradient id="SVGID_1_" cx="246.2365" cy="-50.369" gradientTransform="matrix(0.89 0 0 -0.78 -117.55 32.61)" gradientUnits="userSpaceOnUse" r="21.31">
        <stop offset="0" stop-color="#ED7770"/>
        <stop offset="0.08" stop-color="#ED7770" stop-opacity="0.97"/>
        <stop offset="0.21" stop-color="#ED7770" stop-opacity="0.88"/>
        <stop offset="0.35" stop-color="#ED7770" stop-opacity="0.74"/>
        <stop offset="0.52" stop-color="#ED7770" stop-opacity="0.55"/>
        <stop offset="0.71" stop-color="#ED7770" stop-opacity="0.29"/>
        <stop offset="0.9" stop-color="#ED7770" stop-opacity="0"/>
      </radialGradient>
      <ellipse cx="101.65" cy="71.75" fill="url(#SVGID_1_)" rx="17.44" ry="16"/>
    </g>
    <path d="M122.24,44L122.24,44c-1.9-1.9-4.97-1.9-6.87,0L80.76,78.56l-4.93,4.94c3.75,0.55,7.43,1.46,11,2.73 l3.47-3.48L111,62.31l1.24-1.1l10-10.38C124.1,48.93,124.1,45.9,122.24,44z" fill="#E6E6E6"/>
    <path d="M109.05,58L109.05,58c-1.26-1.26-3.3-1.26-4.56,0L78.1,83.89c2.37,0.43,4.7,1.01,7,1.73l24-23 c1.26-1.27,1.26-3.32-0.01-4.58C109.08,58.03,109.06,58.01,109.05,58z" fill="#FF0000"/>
  </g>
  <g id="facial_expressions">
    <g id="face-with-thermometer">
      <g id="mouth">
        <path d="M64.11,75.93C56.03,75.86,48.07,77.89,41,81.8c-2.63,1.39-0.86,4.92,1.35,4.14 c6.97-2.36,14.29-3.49,21.65-3.33c3.96-0.01,7.92,0.29,11.83,0.89l4.93-4.94C75.38,76.82,69.76,75.93,64.11,75.93z" fill="#422B0D"/>
        <path d="M90.9,86.33L90.9,86.33c0.87-0.89,0.85-2.31-0.03-3.18c-0.13-0.13-0.28-0.24-0.45-0.34l-0.1-0.06 l-3.47,3.48c0.61,0.22,1.13,0.43,1.55,0.61C89.26,87.2,90.25,87,90.9,86.33z" fill="#422B0D"/>
        <polygon fill="#E6E6E6" points="86.84,86.23 90.32,82.75 86.84,86.23 "/>
        <path d="M118.69,54.52l-2.75-2.74c-0.34-0.34-0.34-0.89,0-1.23l0,0c0.34-0.34,0.89-0.34,1.23,0l2.72,2.72 L118.69,54.52z" fill="#404040"/>
        <path d="M113.62,59.79l-1.52-1.53c-0.33-0.34-0.33-0.89,0-1.23l0,0c0.34-0.34,0.89-0.34,1.23,0l1.49,1.5 L113.62,59.79z" fill="#404040"/>
        <path d="M103.86,69.45L102.37,68c-0.34-0.34-0.34-0.89,0-1.23l0,0c0.34-0.34,0.89-0.34,1.23,0l1.5,1.46 L103.86,69.45z" fill="#404040"/>
        <path d="M94,79.13l-1.38-1.39c-0.34-0.34-0.34-0.89,0-1.23l0,0c0.34-0.34,0.89-0.34,1.23,0l1.39,1.4 L94,79.13z" fill="#404040"/>
        <path d="M109,64.42l-2.71-2.76c-0.34-0.34-0.34-0.89,0-1.23l0,0c0.34-0.34,0.89-0.34,1.23,0l2.72,2.77 L109,64.42z" fill="#404040"/>
        <path d="M99.23,74l-2.77-2.74c-0.34-0.34-0.34-0.89,0-1.23l0,0c0.34-0.34,0.89-0.34,1.23,0l2.78,2.75 L99.23,74z" fill="#404040"/>
        <path d="M89.39,83.68L86.72,81c-0.34-0.34-0.34-0.89,0-1.23l0,0c0.34-0.34,0.89-0.34,1.23,0l2.68,2.68 L89.39,83.68z" fill="#404040"/>
      </g>
    </g>
    <path d="M46,38.59c1.01,0.04,1.86-0.75,1.9-1.76s-0.75-1.86-1.76-1.9l0,0c-1.94-0.25-3.91-0.17-5.82,0.24 c-5.2,0.97-9.84,3.86-13,8.1c-1.42,2.06,1.25,3.83,2.9,2.31c4.29-4.1,9.88-6.57,15.8-7l0,0" fill="#422B0D"/>
    <path d="M81.92,38.79c-1.01,0.04-1.86-0.75-1.89-1.77c-0.04-1.01,0.75-1.86,1.76-1.89 c1.94-0.24,3.91-0.16,5.82,0.25c5.2,0.97,9.84,3.87,13,8.11c1.42,2.06-1.25,3.82-2.9,2.31c-4.29-4.1-9.87-6.57-15.79-7l0,0" fill="#422B0D"/>
    <path d="M44,45.94L44,45.94c-4.19,0-8,3.54-8,9.42s3.81,9.41,8,9.41l0,0c4.2,0,8-3.54,8-9.41 S48.24,45.94,44,45.94z" fill="#422B0D"/>
    <g id="peepers">
      <path d="M43.65,49.87L43.65,49.87c-1.42-0.68-3.13-0.08-3.82,1.34c-0.53,1.11-0.29,2.44,0.6,3.3l0,0 c1.42,0.68,3.13,0.08,3.82-1.34C44.78,52.06,44.54,50.73,43.65,49.87z" fill="#896024"/>
    </g>
    <path d="M82.4,45.94L82.4,45.94c-4.19,0-8,3.54-8,9.42s3.81,9.41,8,9.41l0,0c4.19,0,8-3.54,8-9.41 S86.59,45.94,82.4,45.94z" fill="#422B0D"/>
    <g id="peepers-2">
      <path d="M82,49.87L82,49.87c-1.42-0.68-3.13-0.08-3.82,1.34c-0.53,1.11-0.29,2.44,0.6,3.3l0,0 c1.42,0.68,3.13,0.08,3.82-1.34C83.13,52.06,82.89,50.73,82,49.87z" fill="#896024"/>
    </g>
    <g id="blush-2" opacity="0.9">
      <radialGradient id="SVGID_2_" cx="162.9214" cy="-52.749" gradientTransform="matrix(0.89 0 0 -0.78 -117.55 33.44)" gradientUnits="userSpaceOnUse" r="21.2972">
        <stop offset="0" stop-color="#ED7770"/>
        <stop offset="0.08" stop-color="#ED7770" stop-opacity="0.97"/>
        <stop offset="0.21" stop-color="#ED7770" stop-opacity="0.88"/>
        <stop offset="0.35" stop-color="#ED7770" stop-opacity="0.74"/>
        <stop offset="0.52" stop-color="#ED7770" stop-opacity="0.55"/>
        <stop offset="0.71" stop-color="#ED7770" stop-opacity="0.29"/>
        <stop offset="0.9" stop-color="#ED7770" stop-opacity="0"/>
      </radialGradient>
      <ellipse cx="27.45" cy="74.44" fill="url(#SVGID_2_)" rx="17.44" ry="16"/>
    </g>
  </g>
</svg>

<svg viewBox="0 0 128 128" xmlns="http://www.w3.org/2000/svg">
  <defs>
    <radialGradient id="face_1_" cx="63.6" cy="62.8999" gradientUnits="userSpaceOnUse" r="56.9597">
      <stop offset="0.5" stop-color="#FDE030"/>
      <stop offset="0.92" stop-color="#F7C02B"/>
      <stop offset="1" stop-color="#F4A223"/>
    </radialGradient>
    <radialGradient id="SVGID_1_" cx="114.157848" cy="-92.176692" gradientTransform="matrix(0.89 0 0 -0.78 0 0)" gradientUnits="userSpaceOnUse" r="21.31">
      <stop offset="0" stop-color="#ED7770"/>
      <stop offset="0.08" stop-color="#ED7770" stop-opacity="0.97"/>
      <stop offset="0.21" stop-color="#ED7770" stop-opacity="0.88"/>
      <stop offset="0.35" stop-color="#ED7770" stop-opacity="0.74"/>
      <stop offset="0.52" stop-color="#ED7770" stop-opacity="0.55"/>
      <stop offset="0.71" stop-color="#ED7770" stop-opacity="0.29"/>
      <stop offset="0.9" stop-color="#ED7770" stop-opacity="0"/>
    </radialGradient>
    <radialGradient id="SVGID_2_" cx="30.842748" cy="-95.620795" gradientTransform="matrix(0.89 0 0 -0.78 0 0)" gradientUnits="userSpaceOnUse" r="21.2972">
      <stop offset="0" stop-color="#ED7770"/>
      <stop offset="0.08" stop-color="#ED7770" stop-opacity="0.97"/>
      <stop offset="0.21" stop-color="#ED7770" stop-opacity="0.88"/>
      <stop offset="0.35" stop-color="#ED7770" stop-opacity="0.74"/>
      <stop offset="0.52" stop-color="#ED7770" stop-opacity="0.55"/>
      <stop offset="0.71" stop-color="#ED7770" stop-opacity="0.29"/>
      <stop offset="0.9" stop-color="#ED7770" stop-opacity="0"/>
    </radialGradient>
  </defs>
  <path id="face" d="M63.6,118.8 C35.7,118.8 5.6,101.3 5.6,62.9 C5.6,24.5 35.7,7 63.6,7 C79.1,7 93.4,12.1 104,21.4 C115.5,31.6 121.6,46 121.6,62.9 C121.6,79.8 115.5,94.1 104,104.3 C93.4,113.6 79,118.8 63.6,118.8 Z" fill="url(#face_1_)"/>
  <path d="M111.49,29.67 C116.82,38.27 119.6,48.51 119.6,59.9 C119.6,76.8 113.5,91.1 102,101.3 C91.4,110.6 77,115.8 61.6,115.8 C43.54,115.8 24.6,108.45 13.42,92.86 C24.18,110.52 44.42,118.8 63.6,118.8 C79,118.8 93.4,113.6 104,104.3 C115.5,94.1 121.6,79.8 121.6,62.9 C121.6,50.16 118.13,38.84 111.49,29.67 Z" fill="#EB8F00"/>
  <path d="M119.09,71.75 A17.44 16 0 1 1 84.21,71.75 A17.44 16 0 1 1 119.09,71.75 Z" fill="url(#SVGID_1_)" opacity="0.9"/>
  <path d="M122.24,44 L122.24,44 C120.34,42.1 117.27,42.1 115.37,44 L80.76,78.56 L75.83,83.5 C79.58,84.05 83.26,84.96 86.83,86.23 L90.3,82.75 L111,62.31 L112.24,61.21 L122.24,50.83 C124.1,48.93 124.1,45.9 122.24,44 Z" fill="#E6E6E6"/>
  <path d="M109.05,58 L109.05,58 C107.79,56.74 105.75,56.74 104.49,58 L78.1,83.89 C80.47,84.32 82.8,84.9 85.1,85.62 L109.1,62.62 C110.36,61.35 110.36,59.3 109.09,58.04 C109.08,58.03 109.06,58.01 109.05,58 Z" fill="#FF0000"/>
  <path d="M64.11,75.93 C56.03,75.86 48.07,77.89 41,81.8 C38.37,83.19 40.14,86.72 42.35,85.94 C49.32,83.58 56.64,82.45 64,82.61 C67.96,82.6 71.92,82.9 75.83,83.5 L80.76,78.56 C75.38,76.82 69.76,75.93 64.11,75.93 Z" fill="#422B0D"/>
  <path d="M90.9,86.33 L90.9,86.33 C91.77,85.44 91.75,84.02 90.87,83.15 C90.74,83.02 90.59,82.91 90.42,82.81 L90.32,82.75 L86.85,86.23 C87.46,86.45 87.98,86.66 88.4,86.84 C89.26,87.2 90.25,87 90.9,86.33 Z" fill="#422B0D"/>
  <path d="M118.69,54.52 L115.94,51.78 C115.6,51.44 115.6,50.89 115.94,50.55 L115.94,50.55 C116.28,50.21 116.83,50.21 117.17,50.55 L119.89,53.27 L118.69,54.52 Z" fill="#404040"/>
  <path d="M113.62,59.79 L112.1,58.26 C111.77,57.92 111.77,57.37 112.1,57.03 L112.1,57.03 C112.44,56.69 112.99,56.69 113.33,57.03 L114.82,58.53 L113.62,59.79 Z" fill="#404040"/>
  <path d="M103.86,69.45 L102.37,68 C102.03,67.66 102.03,67.11 102.37,66.77 L102.37,66.77 C102.71,66.43 103.26,66.43 103.6,66.77 L105.1,68.23 L103.86,69.45 Z" fill="#404040"/>
  <path d="M94,79.13 L92.62,77.74 C92.28,77.4 92.28,76.85 92.62,76.51 L92.62,76.51 C92.96,76.17 93.51,76.17 93.85,76.51 L95.24,77.91 L94,79.13 Z" fill="#404040"/>
  <path d="M109,64.42 L106.29,61.66 C105.95,61.32 105.95,60.77 106.29,60.43 L106.29,60.43 C106.63,60.09 107.18,60.09 107.52,60.43 L110.24,63.2 L109,64.42 Z" fill="#404040"/>
  <path d="M99.23,74 L96.46,71.26 C96.12,70.92 96.12,70.37 96.46,70.03 L96.46,70.03 C96.8,69.69 97.35,69.69 97.69,70.03 L100.47,72.78 L99.23,74 Z" fill="#404040"/>
  <path d="M89.39,83.68 L86.72,81 C86.38,80.66 86.38,80.11 86.72,79.77 L86.72,79.77 C87.06,79.43 87.61,79.43 87.95,79.77 L90.63,82.45 L89.39,83.68 Z" fill="#404040"/>
  <path d="M46,38.59 C47.01,38.63 47.86,37.84 47.9,36.83 C47.94,35.82 47.15,34.97 46.14,34.93 L46.14,34.93 C44.2,34.68 42.23,34.76 40.32,35.17 C35.12,36.14 30.48,39.03 27.32,43.27 C25.9,45.33 28.57,47.1 30.22,45.58 C34.51,41.48 40.1,39.01 46.02,38.58 L46.02,38.58" fill="#422B0D"/>
  <path d="M81.92,38.79 C80.91,38.83 80.06,38.04 80.03,37.02 C79.99,36.01 80.78,35.16 81.79,35.13 C83.73,34.89 85.7,34.97 87.61,35.38 C92.81,36.35 97.45,39.25 100.61,43.49 C102.03,45.55 99.36,47.31 97.71,45.8 C93.42,41.7 87.84,39.23 81.92,38.8 L81.92,38.8" fill="#422B0D"/>
  <path d="M44,45.94 L44,45.94 C39.81,45.94 36,49.48 36,55.36 C36,61.24 39.81,64.77 44,64.77 L44,64.77 C48.2,64.77 52,61.23 52,55.36 C52,49.49 48.24,45.94 44,45.94 Z" fill="#422B0D"/>
  <path d="M43.65,49.87 L43.65,49.87 C42.23,49.19 40.52,49.79 39.83,51.21 C39.3,52.32 39.54,53.65 40.43,54.51 L40.43,54.51 C41.85,55.19 43.56,54.59 44.25,53.17 C44.78,52.06 44.54,50.73 43.65,49.87 Z" fill="#896024"/>
  <path d="M82.4,45.94 L82.4,45.94 C78.21,45.94 74.4,49.48 74.4,55.36 C74.4,61.24 78.21,64.77 82.4,64.77 L82.4,64.77 C86.59,64.77 90.4,61.23 90.4,55.36 C90.4,49.49 86.59,45.94 82.4,45.94 Z" fill="#422B0D"/>
  <path d="M82,49.87 L82,49.87 C80.58,49.19 78.87,49.79 78.18,51.21 C77.65,52.32 77.89,53.65 78.78,54.51 L78.78,54.51 C80.2,55.19 81.91,54.59 82.6,53.17 C83.13,52.06 82.89,50.73 82,49.87 Z" fill="#896024"/>
  <path d="M44.89,74.44 A17.44 16 0 1 1 10.01,74.44 A17.44 16 0 1 1 44.89,74.44 Z" fill="url(#SVGID_2_)" opacity="0.9"/>
</svg>
